actions/go-previous-symbolic.svg

<?xml version="1.0" encoding="UTF-8" standalone="no"?>
<!-- Created with Inkscape (http://www.inkscape.org/) -->

<svg
   xmlns:dc="http://purl.org/dc/elements/1.1/"
   xmlns:cc="http://creativecommons.org/ns#"
   xmlns:rdf="http://www.w3.org/1999/02/22-rdf-syntax-ns#"
   xmlns:svg="http://www.w3.org/2000/svg"
   xmlns="http://www.w3.org/2000/svg"
   xmlns:sodipodi="http://sodipodi.sourceforge.net/DTD/sodipodi-0.dtd"
   xmlns:inkscape="http://www.inkscape.org/namespaces/inkscape"
   width="16"
   height="16"
   id="svg4152"
   version="1.1"
   inkscape:version="0.91 r13725"
   viewBox="0 0 16 16"
   sodipodi:docname="go-previous-symbolic.svg">
  <defs
     id="defs4154" />
  <sodipodi:namedview
     id="base"
     pagecolor="#ededed"
     bordercolor="#000000"
     borderopacity="0.49803922"
     inkscape:pageopacity="0"
     inkscape:pageshadow="2"
     inkscape:zoom="31.392433"
     inkscape:cx="-5.207203"
     inkscape:cy="8.6203006"
     inkscape:current-layer="layer1"
     showgrid="true"
     inkscape:grid-bbox="true"
     inkscape:document-units="px"
     inkscape:showpageshadow="false"
     borderlayer="true"
     inkscape:window-width="1920"
     inkscape:window-height="1012"
     inkscape:window-x="0"
     inkscape:window-y="32"
     inkscape:window-maximized="1">
    <inkscape:grid
       type="xygrid"
       id="grid4700"
       color="#000000"
       opacity="0.0627451"
       empcolor="#000000"
       empopacity="0.1254902"
       empspacing="4"
       spacingx="2"
       spacingy="2" />
  </sodipodi:namedview>
  <metadata
     id="metadata4157">
    <rdf:RDF>
      <cc:Work
         rdf:about="">
        <dc:format>image/svg+xml</dc:format>
        <dc:type
           rdf:resource="http://purl.org/dc/dcmitype/StillImage" />
        <dc:title />
      </cc:Work>
    </rdf:RDF>
  </metadata>
  <g
     id="layer1"
     inkscape:label="Layer 1"
     inkscape:groupmode="layer">
    <path
       style="color:#000000;font-style:normal;font-variant:normal;font-weight:normal;font-stretch:normal;font-size:medium;line-height:normal;font-family:sans-serif;text-indent:0;text-align:start;text-decoration:none;text-decoration-line:none;text-decoration-style:solid;text-decoration-color:#000000;letter-spacing:normal;word-spacing:normal;text-transform:none;direction:ltr;block-progression:tb;writing-mode:lr-tb;baseline-shift:baseline;text-anchor:start;white-space:normal;clip-rule:nonzero;display:inline;overflow:visible;visibility:visible;opacity:1;isolation:auto;mix-blend-mode:normal;color-interpolation:sRGB;color-interpolation-filters:linearRGB;solid-color:#000000;solid-opacity:1;fill:#000000;fill-opacity:1;fill-rule:evenodd;stroke:none;stroke-width:2;stroke-linecap:round;stroke-linejoin:round;stroke-miterlimit:4;stroke-dasharray:none;stroke-dashoffset:0;stroke-opacity:1;color-rendering:auto;image-rendering:auto;shape-rendering:auto;text-rendering:auto;enable-background:accumulate"
       d="m 8.0239625,-0.00976563 c 0.897417,2.3565e-4 1.3403773,1.09088573 0.6972656,1.71679683 L 3.4282589,7 15.014197,7 c 1.314609,0.018592 1.314609,1.9814081 0,2 L 3.4282589,9 8.7212281,14.292969 c 0.9816664,0.942509 -0.4715541,2.395729 -1.4140624,1.414062 l -6.9999999,-6.9999998 -0.0098,-0.00977 c -0.019793,-0.020664 -0.038691,-0.042168 -0.05664,-0.064453 l -0.0098,-0.011719 c -0.01789,-0.022055 -0.034832,-0.044862 -0.05078,-0.068359 l -0.0078,-0.011719 c -0.00468,-0.0084 -0.00924,-0.016862 -0.01367,-0.025391 -0.012463,-0.020406 -0.024191,-0.041253 -0.03516,-0.0625 -0.01283,-0.025528 -0.024561,-0.051593 -0.03516,-0.078125 l -0.0059,-0.013672 c -0.010239,-0.026295 -0.019361,-0.053012 -0.02734,-0.080078 l -0.0039,-0.013672 c -0.00771,-0.027701 -0.01423,-0.055722 -0.01953,-0.083984 l -0.002,-0.013672 c -0.00509,-0.027816 -0.009,-0.055836 -0.01172,-0.083984 l 0,-0.00195 c -0.00253,-0.028576 -0.00383,-0.057249 -0.0039,-0.085937 l 0,-0.013672 0,-0.013672 c 7.315e-4,-0.028717 0.0027,-0.057389 0.0059,-0.085937 l 0.002,-0.013672 c 0.00401,-0.028205 0.00923,-0.056225 0.01563,-0.083984 0.00457,-0.02034 0.00978,-0.040532 0.01562,-0.060547 0.00476,-0.017062 0.00997,-0.033995 0.01563,-0.050781 0.00932,-0.026469 0.019742,-0.052533 0.03125,-0.078125 l 0.0059,-0.013672 c 0.011288,-0.025904 0.02367,-0.051317 0.03711,-0.076172 l 0.0078,-0.013672 c 0.014626,-0.024087 0.030263,-0.047546 0.04687,-0.070312 l 0.0078,-0.011719 c 0.00639,-0.00791 0.012901,-0.015724 0.01953,-0.023437 0.013685,-0.018722 0.028017,-0.036962 0.04297,-0.054687 l 0.01172,-0.013672 c 0.00894,-0.00929 0.018051,-0.018406 0.02734,-0.027344 L 0.3286499,7.2714842 7.3071657,0.2929686 C 7.4954368,0.0994358 7.7539608,-0.0097501 8.0239625,-0.00976563 Z"
       id="path4136"
       inkscape:connector-curvature="0"
       sodipodi:nodetypes="ccccccccccccccccccccccccccccccccccccccccccccc" />
  </g>
</svg>

<svg xmlns="http://www.w3.org/2000/svg" width="16" height="16">
    <path d="M8.024-.01c.897 0 1.34 1.091.697 1.717L3.428 7h11.586c1.315.019 1.315 1.981 0 2H3.428l5.293 5.293c.982.942-.471 2.396-1.414 1.414l-7-7-.01-.01a1 1 0 0 1-.056-.064L.23 8.62a1 1 0 0 1-.05-.068L.171 8.54a1 1 0 0 1-.084-.166l-.006-.014a1 1 0 0 1-.027-.08l-.004-.013a1.002 1.002 0 0 1-.02-.084L.03 8.17a1.002 1.002 0 0 1-.012-.084v-.002a1.002 1.002 0 0 1-.004-.086v-.027a1 1 0 0 1 .006-.086l.002-.014A1.001 1.001 0 0 1 .1 7.598l.006-.014a1 1 0 0 1 .037-.076l.008-.014a1 1 0 0 1 .047-.07l.008-.012c.006-.008.012-.016.02-.023a1 1 0 0 1 .042-.055L.28 7.32l.027-.027.022-.022L7.307.293a1 1 0 0 1 .717-.303z" fill-rule="evenodd"/>
</svg>
